src/pos-icons/table-edit.svg

<svg height="24" viewBox="0 0 24 24" width="24" xmlns="http://www.w3.org/2000/svg"><path d="m21.7 13.35-1 1-2.05-2.05 1-1c.21-.22.56-.22.77 0l1.28 1.28c.22.21.22.56 0 .77m-9.7 5.59 6.07-6.06 2.05 2.05-6.06 6.07h-2.06zm-8-16.94h14a2 2 0 0 1 2 2v4.17l-3.83 3.83h-4.17v4.17l-1.83 1.83h-6.17a2 2 0 0 1 -2-2v-12a2 2 0 0 1 2-2m0 4v4h6v-4zm8 0v4h6v-4zm-8 6v4h6v-4z"/></svg>

<?xml version="1.0" encoding="UTF-8"?><!DOCTYPE svg PUBLIC "-//W3C//DTD SVG 1.1//EN" "http://www.w3.org/Graphics/SVG/1.1/DTD/svg11.dtd"><svg xmlns="http://www.w3.org/2000/svg" xmlns:xlink="http://www.w3.org/1999/xlink" version="1.1" id="mdi-table-edit" width="24" height="24" viewBox="0 0 24 24"><path d="M21.7,13.35L20.7,14.35L18.65,12.3L19.65,11.3C19.86,11.08 20.21,11.08 20.42,11.3L21.7,12.58C21.92,12.79 21.92,13.14 21.7,13.35M12,18.94L18.07,12.88L20.12,14.93L14.06,21H12V18.94M4,2H18A2,2 0 0,1 20,4V8.17L16.17,12H12V16.17L10.17,18H4A2,2 0 0,1 2,16V4A2,2 0 0,1 4,2M4,6V10H10V6H4M12,6V10H18V6H12M4,12V16H10V12H4Z" /></svg>
